X:1
T:Diligam te Domine
T:Andrea Gabrieli
T:Source : Liber primus Ecclesiasticarum Cantionum---Venetia---Ang.Gardano---1576. Editor :  André Vierendeels (11/09/17).
T:b
T:Diligam te Domine
T:©
T:©
T:©
T:©
T:©
C:Andrea Gabrieli
Z:©
%%score [ 1 2 3 4 ]
L:1/8
Q:1/4=120
M:2/2
K:F
V:1 treble nm="Soprano" snm="S"
V:2 treble nm="Alto" snm="A"
V:3 treble-8 nm="Tenor" snm="T"
V:4 bass nm="Bass" snm="B"
V:1
 d6 d2 | B2 G2 B3 B | A2 d4 c2 | f2 _e2 d3 c | de f2 d4 | z8 | z4 z2 B2- | B2 A2 d2 c2 | B4 A4 | %9
w: Di- li-|gam te Do- mi-|ne for- ti-|tu- do me- *|* * * a,||for-|* ti- tu- do|me- a,|
 z4 d4- | d2 d2 c2 A2 | B3 B A4 | z4 z2 G2- | G2 F2 B2 A2- |"^#" A2 G4 F2 | G2 d4 c2 | c2 B4 A2 | %17
w: di-|* li- gam te|Do- mi- ne|for-|* ti- tu- do|_ me- *|a, Do- mi-|nus fir- ma|
 A2 A2 G4 | d4 z4 | z2 g4 f2 | f2 e4 d2 | d2 d2 c4 | d4 z4 | z8 | z2 d4 d2 | B4 B2 A2 | %26
w: men- tum me-|um,|Do- mi-|nus fir- ma-|men- tum me-|um||et re-|fu- gi- um|
 GABG Bc d2- | d2 c2 d2 f2- | f2 e2 d4 | d2 c4 B2- | B2 A2 B2 f2 | f2 f2 d2 d2 | c3 d _e2 d2 | %33
w: me- * * * * * *|* * um, et|_ re- fu-|gi- um me-|* * um et|li- be- ra- tor|me- * * us|
 z2 d2 d2 c2 | B2 A2 G3 F/E/ | D2 E2 FD G2- | G2 F2 G4 | z4 z2 A2- | A2 G2 c4 | A4 z4 | z2 d4 c2 | %41
w: et li- be-|ra- tor me- * *||* * us,|De-|* us me-|us,|De- us|
 f4 d2 G2 | B2 A2 GABc | dB d4 c2 | d4 z4 | z4 z2 d2- | d2 d2 d4 | B2 c2 d4- | d4 G4 | z4 z2 A2- | %50
w: me- us ad-|iu- tor me- * * *||us|et|_ spe- ra-|bo in e-|* um,|et|
 A2 A2 A4 | F2 F2 G3 A | BAAG/A/ B4 | F2 f4 e2 | fedc B2 A2 | A2 d4 c2 | A2 f3 edc | d2 cB A4 | %58
w: _ spe- ra-|bo in e- *||um, et spe-|ra- * * * * bo|in e- um,|in e- * * *||
 =B8 |] %59
w: um.|
V:2
 z8 | G6 G2 | F2 D2 _E3 E | D2 G4 F2 | B2 A2 G4 | D8 | z8 | z8 | z2 G4 F2 | B2 A2 G4 | D2 F4 F2 | %11
w: |Di- li-|gam te Do- mi-|ne for- ti-|tu- do me-|a,|||for- ti-|tu- do me-|, di- li-|
 D2 B,2 D3 D | D2 F2 E2 D2- | DCDE F4- | F2 D2 D4 | D3 E F4 | z2 G4 F2 | F2 E4 D2 | F4 F2 D2- | %19
w: gam te Do- mi-|ne for- ti- tu-||* do me-|a, _ _|Do- mi-|nus fir- ma-|men- tum me-|
 D2 C2 D4 | A3 G G2 B2- | B2 B2 A2 G2 | F4 F4 | z2 B4 A2 | G4 G2 ^F2 | G4 D4 | z4 z2 B2- | %27
w: * * um,|Do- mi- ,us fir-|* ma men- tum|me- um|et re-|fu- gi- um|me- um,|et|
 B2 G2 B4 | A2 A2 B3 A/G/ | FG A2 F4- | F8 | z2 D2 D2 D2 | E2 F2 G3 A | B3 A/G/ AB G2- | G2 F2 D4 | %35
w: _ re- fu-|gi- um me- * *|* * * um|_|et li- be-|ra- tor me- *||* * us,|
 z8 | z2 D4 C2 | F4 D4 | z2 D2 F2 E2 | DEFG AF G2 | A2 A4 E2 | D4 D4 | z4 z2 G2- | G2 F2 A4 | %44
w: |De- us|me- us,|ad- iu- tor|me- * * * * * *|us, De- us|me- us,|De-|* us me-|
 A4 z2 F2 | B2 B2 A4 | G2 B4 B2 | G4 A2 D2 | G3 A B4 | A2 G2 E4 | F8 | z2 D4 E2 | F4 D2 G2 | %53
w: us, ad-|iu- tor me-|us et spe-|ra- bo in|e- * *||um|et pe-|ra- bo in|
 A4 G4 | F2 F4 F2 | F4 D2 E2 | FEDC DEFG |"^#" A2 G4 F2 | G8 |] %59
w: e- *|um et spe-|ra- bo in|e- * * * * * * *||um.|
V:3
 z8 | z8 | z8 | z4 d4- | d2 d2 B2 G2 | B3 B A2 d2- | d2 c2 f2 _e2 | d3 c d_e f2 | d4 z2 d2- | %9
w: |||Di-|* li- gam te|Do- mi- ne for-|* ti- tu- do|me- * * * *|a, di-|
 d2 d2 B2 G2 | B3 B A4 | z8 | z4 z2 B2- | B2 A2 d2 c2 | B3 A/G/ A4 | G4 z4 | z4 d4- | %17
w: * li- gam te|Do- mi- ne||for-|* ti- tu- do|me- * * *|a,|Do-|
 d2 c2 c2 B2- | B2 A2 A2 A2 | G4 A2 d2- | d2 c2 c2 B2- | B2 B2 f2 _e2 | d6 cd | _edBc d3 c | %24
w: * mi- nus fir-|* ma- men- tum|me- um, Do-|* mi- nus fir-|* ma men- tum|me- * *||
 B4 A4 | G2 g4 f2 | _e4 e2 d2 | _e4 B4 | z4 z2 f2 | f2 f2 d2 d2 | c4 B4- | B4 z4 | z4 z2 g2 | %33
w: |um et re-|fu- gi- um|me- um|et|li- be- ra- tor|me- us|_|et|
 g2 g2 f2 _e2 | d3 c B4- | B2 AG ABcG | B2 A2 G4 | z2 A4 F2 | B4 A4 | z2 d4 c2 | f4 e2 A2 | %41
w: li- be- ra- tor|me- * *||* * us|De- us|me- us,|De- us|me- us ad|
 B2 A2 GABc | d4 G4 | z2 d2 f2 e2 | d3 e fg a2 | d2 g4 f2 | g4 d2 d2 | _e4 d2 B2 | B3 c dBde | %49
w: iu- tor me- * * *|* us,|ad- iu- tor|me- * * * *|us et spe-|ra- bo in|e- um, in|e- * * * * *|
 fe d4 c2 | d4 z4 | z8 | z2 d4 d2 | d4 B2 c2 | d8 | A4 z2 A2- | A2 A2 A4 | F2 G2 A4 | G8 |] %59
w: |um||et spr-|ra- bo in|e-|um, et|_ spe- ra-|bo in e-|um.|
V:4
 z8 | z8 | z8 | z8 | z4 G,4- | G,2 G,2 F,2 D,2 | _E,3 E, D,2 G,2- | G,2 F,2 B,2 A,2 | G,4 D,4- | %9
w: ||||Di-|* li- gam te|Do- mi- ne for-|* ti- tu- do|me- a,|
 D,4 z4 | z8 | z2 G,4 F,2 | B,2 A,2 G,4 | D,8- | D,8 | z2 B,4 A,2 | A,2 G,4 D,2 | F,G,A,B, C2 G,2 | %18
w: _||for- ti-|tu- do me-|a,|_|Do- mi-|nus fir- ma-|men- * * * * tum|
 D,3 E, F,4 | _E,4 D,4 | z8 | z8 | z2 B,4 A,2 | G,4 G,2 ^F,2 | G,4 D,4 | z8 | z8 | z4 z2 D2- | %28
w: me- * *|* um|||et re-|fu- gi- um|me- um|||et|
 D2 C2 B,4 | B,2 A,2 B,4 | F,4 z2 D2 | D2 D2 B,2 B,2 | A,4 G,4- | G,4 z4 | z4 z2 G,2 | %35
w: _ re- fu-|gi- um me-|um, et|li- be- ra- tor|me- us|_|et|
 G,2 G,2 F,2 _E,2 |"^b" D,3 C, B,,2 E,2 | D,8 | z8 | z2 D,2 F,2 E,2 | D,E,F,G, A,4 | D,4 z2 G,2- | %42
w: li- be- ra- tor|me- * * *|us||ad- iu- tor|me- * * * *|us De-|
 G,2 F,2 B,4- | B,4 A,4 | z2 D2 B,2 A,2 | G,A,B,C D4 | G,8 | z4 z2 G,2- | G,2 G,2 G,4 | %49
w: * us me-|* us,|ad- iu- tor|me- * * * *|us|et|_ spe- ra-|
 F,2 G,2 A,4 | D,2 D4 D2 | D4 B,2 C2 | D4 G,4 | z8 | z2 D,4 D,2 | D,4 B,,2 C,2 | D,8- | D,8 | %58
w: bo in e-|um, et spe-|ra- bo in|e- um||et spe-|ra- bo in|e-||
 G,,8 |] %59
w: um.|

